X: 0
T: Wassail Song
Z: Michael Nancarrow
Z: Copyright © 2005 by Douglas D. Anderson
Z: Released To The Public Domain
L: 1/4
M: 6/8
Q: 1/4=85
V: P1 name="Staff"
%%MIDI program 1 19
K: D
[V: P1]  D/ | F F/ A d/ | (B/G/)B/ A A/ | (B/d/)B/ (A/F/)A/ | B3/8B3/4A/ D (F/4D/4) | D/D/D/ (A/A/)A/ | B3/4A/4^G/ A A/ | B3/4B/4B/ A/F/A/ | G/F/E/ F A/ | D3/4D/4D/ A/4A3/4A/ | B3/4A/4^G/ A A/ | B3/4c/4B/ A/F/A/ | G/F/E/ (F/G/)A/ | G/F/E/ D D/ | F F/ A d/ | (B/G/)B/ A A/ | (B/d/)B/ (A/F/)A/ | B3/8B3/4A/ D|]
w: With our was- sail, was- sail,_ was- sail! And joy_ come to_ our Jol- ly Was- sail. Now_ here at this house_ we first shall be- gin, To drink the King's health which a cus- tom have been, Now un- to the mas- ter we'll drink his good health, We hope he may pros- per in vir- tue and wealth,_ in vir- tue and wealth. With our was- sail, was- sail,_ was- sail! And joy_ come to_ our Jol- ly Was- sail.

